src/view/frontend/web/svg/heroicons/outline/library.svg

<svg xmlns="http://www.w3.org/2000/svg" fill="none" viewBox="0 0 24 24" stroke="currentColor">
  <path stroke-linecap="round" stroke-linejoin="round" stroke-width="2" d="M8 14v3m4-3v3m4-3v3M3 21h18M3 10h18M3 7l9-4 9 4M4 10h16v11H4V10z"/>
</svg>

<svg  viewBox="0 0 24 24" fill="none" stroke="currentColor" xmlns="http://www.w3.org/2000/svg">
<path d="M8 14V17M12 14V17M16 14V17M3 21H21M3 10H21M3 7L12 3L21 7M4 10H20V21H4V10Z"  stroke-width="2" stroke-linecap="round" stroke-linejoin="round"/>
</svg>
